X:8
T:Parole ternelle du Pre
C:J. Berthier
M:C
L:1/4
K:Bb
D|!segno!GG/G/ FG/F/|D2 D2|BB cB/B/|A2zD|GG/G/ FG/F/|D2 D2|BB AG/^F/|G3||
AA/A/|Bc/B/ AA/G/|A2 BA/G/|FD/D/ CB,/C/|D2zD!segno!||
